X:1
T:Cleansing for Me, 10.8.10.8.10.10.10.8
T:Cleansing for Me, 10.8.10.8.10.10.10.8
T:Anonymous
T:Public Domain Courtesy of the Cyber Hymnal™
C:Anonymous
Z:Public Domain
Z:Courtesy of the Cyber Hymnal™
%%score ( 1 2 ) ( 3 4 )
L:1/8
Q:1/4=105
M:4/4
K:G
V:1 treble 
V:2 treble 
V:3 bass 
V:4 bass 
V:1
|: [B,D]2 [B,D]>[B,D] [CE]2 [B,D]>[B,D] | [B,G]2 [B,G]>[CA] [DB]4 x | [Gd]2 [Gd]>[Fc] [GB]4 | %3
 [GB]2 [FB]>[FA] G4 :| [FA]2 [FA]>[FA] [FA]2 [FA]>[GB] | [Ac]2 [GB]>[FA] [GB]4 | %6
 [GB]2 [GB]>[GB] [GB]2 [GB]>[Gd] | [Fc]2 [Ac]>[GB] [FA]4 | [GB]2 B>A [EG]2 G>F | %9
 [CE]2 [EG]>[CE] [B,D]4 | [Gd]2 [Gd]>[Fc] [GB]4 | [GB]2 [FB]>[DA] [DG]4 |] %12
V:2
|: x8 | x9 | x8 | x4 G4 :| x8 | x8 | x8 | x8 | x2 F2 x/ D2 x3/2 | x8 | x8 | x8 |] %12
V:3
|: [G,,G,]2 [G,,G,]2 [C,G,]2 [G,,G,]2 | [G,,G,]2 G,>F, G,4 x | [B,D]2 [B,D]>[A,D] [G,D]4 | %3
 [D,D]2 [D,D]>[D,C] [G,,B,]4 :| [D,D]4 [D,D]4 | [D,D]2 [D,D]2 [G,D]4 | [G,D]4 [G,D]2 D2 | %7
 [A,D]2 D2 [D,D]4 | [G,D]2 D>C [E,B,]2 [B,,G,]2 | [C,G,]2 G,2 G,4 | [B,D]2 D2 [G,D]4 | %11
 [D,D]2 D>C [G,,B,]4 |] %12
V:4
|: x8 | x2 D,3 G,4 | x8 | x8 :| x8 | x8 | x6 G,>B, | x2 F,>G, x4 | x2 D,2 x4 | x2 C,>E, G,4 | %10
 x2 B,>A, x4 | x2 D,2 x4 |] %12

